places/48/user-trash.svg

<?xml version="1.0" encoding="UTF-8" standalone="no"?>
<!-- Created with Inkscape (http://www.inkscape.org/) -->

<svg
   xmlns:dc="http://purl.org/dc/elements/1.1/"
   xmlns:cc="http://creativecommons.org/ns#"
   xmlns:rdf="http://www.w3.org/1999/02/22-rdf-syntax-ns#"
   xmlns:svg="http://www.w3.org/2000/svg"
   xmlns="http://www.w3.org/2000/svg"
   xmlns:xlink="http://www.w3.org/1999/xlink"
   xmlns:inkscape="http://www.inkscape.org/namespaces/inkscape"
   version="1.0"
   width="48"
   height="48"
   id="svg3695">
  <metadata
     id="metadata56">
    <rdf:RDF>
      <cc:Work
         rdf:about="">
        <dc:format>image/svg+xml</dc:format>
        <dc:type
           rdf:resource="http://purl.org/dc/dcmitype/StillImage" />
      </cc:Work>
    </rdf:RDF>
  </metadata>
  <defs
     id="defs3697">
    <linearGradient
       id="linearGradient5060">
      <stop
         id="stop5062"
         style="stop-color:#000000;stop-opacity:1"
         offset="0" />
      <stop
         id="stop5064"
         style="stop-color:#000000;stop-opacity:0"
         offset="1" />
    </linearGradient>
    <radialGradient
       cx="62.71241"
       cy="108.02493"
       r="47.38271"
       fx="62.71241"
       fy="108.02493"
       id="radialGradient3269"
       xlink:href="#linearGradient5060"
       gradientUnits="userSpaceOnUse"
       gradientTransform="matrix(0.3587806,0,0,0.2110472,1.5000008,15.20272)" />
    <linearGradient
       id="linearGradient3384">
      <stop
         id="stop3386"
         style="stop-color:#6e6e6e;stop-opacity:1"
         offset="0" />
      <stop
         id="stop3388"
         style="stop-color:#9f9fa1;stop-opacity:1"
         offset="1" />
    </linearGradient>
    <linearGradient
       x1="31.048019"
       y1="45"
       x2="31.048019"
       y2="5.5"
       id="linearGradient3266"
       xlink:href="#linearGradient3384"
       gradientUnits="userSpaceOnUse"
       gradientTransform="translate(0,2)" />
    <linearGradient
       id="linearGradient2793-2-0-403">
      <stop
         id="stop4645"
         style="stop-color:#8d909a;stop-opacity:1"
         offset="0" />
      <stop
         id="stop4647"
         style="stop-color:#d9d9d9;stop-opacity:1"
         offset="1" />
    </linearGradient>
    <linearGradient
       x1="11.93083"
       y1="26.410894"
       x2="21.514704"
       y2="26.410894"
       id="linearGradient3264"
       xlink:href="#linearGradient2793-2-0-403"
       gradientUnits="userSpaceOnUse"
       gradientTransform="matrix(1.2083478,0,0,1.5198788,-1.979478,-15.055094)"
       spreadMethod="reflect" />
    <radialGradient
       cx="19.308081"
       cy="21.029308"
       r="14.500172"
       fx="19.308081"
       fy="21.029308"
       id="radialGradient3258"
       xlink:href="#linearGradient3254-8-457"
       gradientUnits="userSpaceOnUse"
       gradientTransform="matrix(0,1.679283,-1.6454754,0,48.823182,-18.496093)"
       spreadMethod="pad" />
    <linearGradient
       id="linearGradient3355-273">
      <stop
         id="stop4657"
         style="stop-color:#f0f0f0;stop-opacity:1"
         offset="0" />
      <stop
         id="stop3619"
         style="stop-color:#777779;stop-opacity:1"
         offset="0.44955608" />
      <stop
         id="stop4659"
         style="stop-color:#6c6c70;stop-opacity:1"
         offset="1" />
    </linearGradient>
    <linearGradient
       x1="23.999979"
       y1="9.3726854"
       x2="23.999979"
       y2="2.0968478"
       id="linearGradient3255"
       xlink:href="#linearGradient3355-273"
       gradientUnits="userSpaceOnUse"
       gradientTransform="matrix(1.1598658,0,0,1.3742464,-3.8367541,-0.9326014)" />
    <linearGradient
       id="linearGradient3320">
      <stop
         id="stop3323"
         style="stop-color:#4e4e4e;stop-opacity:1"
         offset="0" />
      <stop
         id="stop3325"
         style="stop-color:#b9bac2;stop-opacity:1"
         offset="1" />
    </linearGradient>
    <linearGradient
       x1="9.0003471"
       y1="8"
       x2="24"
       y2="8"
       id="linearGradient3253"
       xlink:href="#linearGradient3320"
       gradientUnits="userSpaceOnUse"
       spreadMethod="reflect" />
    <linearGradient
       id="linearGradient3627">
      <stop
         id="stop3629"
         style="stop-color:#000000;stop-opacity:0"
         offset="0" />
      <stop
         id="stop3190"
         style="stop-color:#000000;stop-opacity:0"
         offset="0.5" />
      <stop
         id="stop3631"
         style="stop-color:#000000;stop-opacity:1"
         offset="1" />
    </linearGradient>
    <radialGradient
       cx="24"
       cy="7.7919979"
       r="14.507708"
       fx="24"
       fy="7.7919979"
       id="radialGradient3250"
       xlink:href="#linearGradient3627"
       gradientUnits="userSpaceOnUse"
       gradientTransform="matrix(-3.2042761e-8,0.6892888,-3.1574826,0,48.603098,-13.542931)"
       spreadMethod="pad" />
    <linearGradient
       id="linearGradient3254-8-457">
      <stop
         id="stop4669"
         style="stop-color:#ffffff;stop-opacity:1"
         offset="0" />
      <stop
         id="stop4671"
         style="stop-color:#ffffff;stop-opacity:0"
         offset="1" />
    </linearGradient>
    <linearGradient
       x1="23.5"
       y1="10.996204"
       x2="23.5"
       y2="39.850574"
       id="linearGradient3247"
       xlink:href="#linearGradient3254-8-457"
       gradientUnits="userSpaceOnUse"
       gradientTransform="matrix(1.2227969,0,0,1.9458981,-4.735753,-31.362975)" />
    <linearGradient
       id="linearGradient3254-3-182">
      <stop
         id="stop4663"
         style="stop-color:#ffffff;stop-opacity:1"
         offset="0" />
      <stop
         id="stop4665"
         style="stop-color:#ffffff;stop-opacity:0"
         offset="1" />
    </linearGradient>
    <linearGradient
       x1="12.25"
       y1="20.230709"
       x2="17.125"
       y2="34.173542"
       id="linearGradient3261"
       xlink:href="#linearGradient3254-3-182"
       gradientUnits="userSpaceOnUse"
       gradientTransform="matrix(0.8965013,0,0,1.365896,4.7251825,-8.808688)" />
    <linearGradient
       x1="24"
       y1="13.506023"
       x2="24"
       y2="43"
       id="linearGradient3389"
       xlink:href="#linearGradient3205"
       gradientUnits="userSpaceOnUse"
       gradientTransform="matrix(1,0.3684052,0,1,0,-4.9734702)" />
    <linearGradient
       id="linearGradient3205">
      <stop
         id="stop3207"
         style="stop-color:#000000;stop-opacity:1"
         offset="0" />
      <stop
         id="stop3209"
         style="stop-color:#000000;stop-opacity:0"
         offset="1" />
    </linearGradient>
    <linearGradient
       x1="24"
       y1="15.502284"
       x2="24"
       y2="45"
       id="linearGradient3373"
       xlink:href="#linearGradient3205"
       gradientUnits="userSpaceOnUse"
       gradientTransform="matrix(1,0.04605065,0,1,0,-0.9440383)" />
  </defs>
  <g
     id="layer1">
    <path
       d="M 41,38.001101 C 40.998964,43.52352 33.388109,48 24,48 14.611891,48 7.0010357,43.52352 7,38.001101 6.9989643,32.477823 14.610427,28 24,28 c 9.389573,0 17.001036,4.477823 17,10.001101 z"
       inkscape:connector-curvature="0"
       id="path12941"
       style="fill:url(#radialGradient3269);fill-opacity:1;fill-rule:evenodd;stroke:none;stroke-width:1.05496335;marker:none;visibility:visible;display:inline;overflow:visible" />
    <path
       d="m 9.4998277,8 0,32 c 0,2.936408 4.4077703,6.5 14.5001733,6.5 10.092403,0 14.500171,-3.563592 14.500171,-6.5 l 0,-32 c 0,0 -29.0003443,0 -29.0003443,0 z"
       inkscape:connector-curvature="0"
       id="path2230"
       style="fill:url(#linearGradient3264);fill-opacity:1;fill-rule:nonzero;stroke:url(#linearGradient3266);stroke-width:0.99999994;stroke-opacity:1;marker:none;visibility:visible;display:inline;overflow:visible" />
    <path
       d="m 10,9 0,31 c 0,2.822002 6.272,6.000003 14.000001,6 C 31.728001,46 38,42.822002 38,40 L 38,9 C 38,9 10,9 10,9 z"
       inkscape:connector-curvature="0"
       id="path3212"
       style="opacity:0.4;fill:url(#radialGradient3258);fill-opacity:1;fill-rule:nonzero;stroke:none;stroke-width:0.99999994;marker:none;visibility:visible;display:inline;overflow:visible" />
    <path
       d="m 38.507708,8.0000002 c 0,3.0420148 -6.495323,5.5080548 -14.507707,5.5080548 -8.012387,0 -14.5077087,-2.46604 -14.5077087,-5.5080548 0,-3.0420151 6.4953217,-5.5080554 14.5077087,-5.5080554 8.012384,0 14.507707,2.4660403 14.507707,5.5080554 l 0,0 z"
       inkscape:connector-curvature="0"
       id="path3164"
       style="fill:url(#linearGradient3253);fill-opacity:1;fill-rule:nonzero;stroke:url(#linearGradient3255);stroke-width:0.98388958;stroke-linecap:round;stroke-linejoin:round;stroke-miterlimit:4;stroke-opacity:1;stroke-dasharray:none;stroke-dashoffset:0;marker:none;visibility:visible;display:inline;overflow:visible" />
    <path
       d="M 38,8.0000002 C 38,10.761424 31.731986,13 24.000001,13 16.268013,13 10,10.761424 10,8.0000002 10,5.2385762 16.268013,2.9999999 24.000001,2.9999999 31.731986,2.9999999 38,5.2385762 38,8.0000002 l 0,0 z"
       inkscape:connector-curvature="0"
       id="path3197"
       style="opacity:0.3;fill:url(#radialGradient3250);fill-opacity:1;fill-rule:nonzero;stroke:none;stroke-width:0.98388958;marker:none;visibility:visible;display:inline;overflow:visible" />
    <path
       d="m 10.5,7.8105818 c 0,2.2237962 0,30.5970462 0,32.8246752 0,2.68534 6.075144,4.864745 13.499975,4.864745 7.42483,0 13.500024,-2.179405 13.500024,-4.864745 0,-2.061124 0,-30.7635493 0,-32.8246752 0,-2.2435666 -6.079164,-4.3470216 -13.500024,-4.310103 C 16.579114,3.5373993 10.5,5.5773261 10.5,7.8105818 z"
       inkscape:connector-curvature="0"
       id="path2206"
       style="opacity:0.15;fill:none;stroke:url(#linearGradient3247);stroke-width:0.99999982;stroke-linecap:round;stroke-linejoin:round;stroke-miterlimit:4;stroke-opacity:1;stroke-dasharray:none;stroke-dashoffset:0;marker:none;visibility:visible;display:inline;overflow:visible" />
    <path
       d="m 16.379699,12.177193 4.482507,0.868458 0,33.208353 -4.482507,-1.109791 0,-32.96702 0,0 z"
       inkscape:connector-curvature="0"
       id="rect3244"
       style="opacity:0.2;fill:url(#linearGradient3261);fill-opacity:1;fill-rule:nonzero;stroke:none;stroke-width:1;marker:none;visibility:visible;display:inline;overflow:visible" />
    <path
       d="m 13.5,13.506023 c 0.831,0.306145 1.5,1.221608 1.5,2.052608 l 0,26.493977 C 15,42.883608 14.331,43.306145 13.5,43 12.669,42.693855 12,41.778392 12,40.947392 l 0,-26.493977 c 0,-0.831 0.669,-1.253537 1.5,-0.947392 z m 21,-0.246988 C 33.669,13.56518 33,14.480643 33,15.311643 l 0,26.493977 c 0,0.831 0.669,1.253537 1.5,0.947392 0.831,-0.306145 1.5,-1.221608 1.5,-2.052608 l 0,-26.493977 c 0,-0.831 -0.669,-1.253537 -1.5,-0.947392 z"
       inkscape:connector-curvature="0"
       id="path3287"
       style="opacity:0.15;fill:url(#linearGradient3389);fill-opacity:1;fill-rule:nonzero;stroke:none;stroke-width:0.99992186;marker:none;visibility:visible;display:inline;overflow:visible;enable-background:accumulate" />
    <path
       d="m 20.5,15.506023 c 0.831,0.03827 1.5,0.738076 1.5,1.569076 l 0,26.493977 C 22,44.400076 21.331,45.038268 20.5,45 19.669,44.961732 19,44.261924 19,43.430924 l 0,-26.493977 c 0,-0.831 0.669,-1.469192 1.5,-1.430924 z m 7,0 c -0.831,0.03827 -1.5,0.738076 -1.5,1.569076 l 0,26.493977 c 0,0.831 0.669,1.469192 1.5,1.430924 0.831,-0.03827 1.5,-0.738076 1.5,-1.569076 l 0,-26.493977 c 0,-0.831 -0.669,-1.469192 -1.5,-1.430924 z"
       inkscape:connector-curvature="0"
       id="path3293"
       style="opacity:0.3;fill:url(#linearGradient3373);fill-opacity:1;fill-rule:nonzero;stroke:none;stroke-width:0.99992186;marker:none;visibility:visible;display:inline;overflow:visible;enable-background:accumulate" />
  </g>
</svg>

<?xml version="1.0" encoding="UTF-8" standalone="no"?>
<!-- Created with Inkscape (http://www.inkscape.org/) -->
<svg
   xmlns:svg="http://www.w3.org/2000/svg"
   xmlns="http://www.w3.org/2000/svg"
   xmlns:xlink="http://www.w3.org/1999/xlink"
   version="1.0"
   width="48"
   height="48"
   id="svg3695">
  <defs
     id="defs3697">
    <linearGradient
       id="linearGradient5060">
      <stop
         id="stop5062"
         style="stop-color:#000000;stop-opacity:1"
         offset="0" />
      <stop
         id="stop5064"
         style="stop-color:#000000;stop-opacity:0"
         offset="1" />
    </linearGradient>
    <radialGradient
       cx="62.71241"
       cy="108.02493"
       r="47.38271"
       fx="62.71241"
       fy="108.02493"
       id="radialGradient3269"
       xlink:href="#linearGradient5060"
       gradientUnits="userSpaceOnUse"
       gradientTransform="matrix(0.3587806,0,0,0.2110472,1.5000008,15.20272)" />
    <linearGradient
       id="linearGradient3384">
      <stop
         id="stop3386"
         style="stop-color:#6e6e6e;stop-opacity:1"
         offset="0" />
      <stop
         id="stop3388"
         style="stop-color:#9f9fa1;stop-opacity:1"
         offset="1" />
    </linearGradient>
    <linearGradient
       x1="31.048019"
       y1="45"
       x2="31.048019"
       y2="5.5"
       id="linearGradient3266"
       xlink:href="#linearGradient3384"
       gradientUnits="userSpaceOnUse"
       gradientTransform="translate(0,2)" />
    <linearGradient
       id="linearGradient2793-2-0-403">
      <stop
         id="stop4645"
         style="stop-color:#8d909a;stop-opacity:1"
         offset="0" />
      <stop
         id="stop4647"
         style="stop-color:#d9d9d9;stop-opacity:1"
         offset="1" />
    </linearGradient>
    <linearGradient
       x1="11.93083"
       y1="26.410894"
       x2="21.514704"
       y2="26.410894"
       id="linearGradient3264"
       xlink:href="#linearGradient2793-2-0-403"
       gradientUnits="userSpaceOnUse"
       gradientTransform="matrix(1.2083478,0,0,1.5198788,-1.979478,-15.055094)"
       spreadMethod="reflect" />
    <radialGradient
       cx="19.308081"
       cy="21.029308"
       r="14.500172"
       fx="19.308081"
       fy="21.029308"
       id="radialGradient3258"
       xlink:href="#linearGradient3254-8-457"
       gradientUnits="userSpaceOnUse"
       gradientTransform="matrix(0,1.679283,-1.6454754,0,48.823182,-18.496093)"
       spreadMethod="pad" />
    <linearGradient
       id="linearGradient3355-273">
      <stop
         id="stop4657"
         style="stop-color:#f0f0f0;stop-opacity:1"
         offset="0" />
      <stop
         id="stop3619"
         style="stop-color:#777779;stop-opacity:1"
         offset="0.44955608" />
      <stop
         id="stop4659"
         style="stop-color:#6c6c70;stop-opacity:1"
         offset="1" />
    </linearGradient>
    <linearGradient
       x1="23.999979"
       y1="9.3726854"
       x2="23.999979"
       y2="2.0968478"
       id="linearGradient3255"
       xlink:href="#linearGradient3355-273"
       gradientUnits="userSpaceOnUse"
       gradientTransform="matrix(1.1598658,0,0,1.3742464,-3.8367541,-0.9326014)" />
    <linearGradient
       id="linearGradient3320">
      <stop
         id="stop3323"
         style="stop-color:#4e4e4e;stop-opacity:1"
         offset="0" />
      <stop
         id="stop3325"
         style="stop-color:#b9bac2;stop-opacity:1"
         offset="1" />
    </linearGradient>
    <linearGradient
       x1="9.0003471"
       y1="8"
       x2="24"
       y2="8"
       id="linearGradient3253"
       xlink:href="#linearGradient3320"
       gradientUnits="userSpaceOnUse"
       spreadMethod="reflect" />
    <linearGradient
       id="linearGradient3627">
      <stop
         id="stop3629"
         style="stop-color:#000000;stop-opacity:0"
         offset="0" />
      <stop
         id="stop3190"
         style="stop-color:#000000;stop-opacity:0"
         offset="0.5" />
      <stop
         id="stop3631"
         style="stop-color:#000000;stop-opacity:1"
         offset="1" />
    </linearGradient>
    <radialGradient
       cx="24"
       cy="7.7919979"
       r="14.507708"
       fx="24"
       fy="7.7919979"
       id="radialGradient3250"
       xlink:href="#linearGradient3627"
       gradientUnits="userSpaceOnUse"
       gradientTransform="matrix(-3.2042761e-8,0.6892888,-3.1574826,0,48.603098,-13.542931)"
       spreadMethod="pad" />
    <linearGradient
       id="linearGradient3254-8-457">
      <stop
         id="stop4669"
         style="stop-color:#ffffff;stop-opacity:1"
         offset="0" />
      <stop
         id="stop4671"
         style="stop-color:#ffffff;stop-opacity:0"
         offset="1" />
    </linearGradient>
    <linearGradient
       x1="23.5"
       y1="10.996204"
       x2="23.5"
       y2="39.850574"
       id="linearGradient3247"
       xlink:href="#linearGradient3254-8-457"
       gradientUnits="userSpaceOnUse"
       gradientTransform="matrix(1.2227969,0,0,1.9458981,-4.735753,-31.362975)" />
    <linearGradient
       id="linearGradient3254-3-182">
      <stop
         id="stop4663"
         style="stop-color:#ffffff;stop-opacity:1"
         offset="0" />
      <stop
         id="stop4665"
         style="stop-color:#ffffff;stop-opacity:0"
         offset="1" />
    </linearGradient>
    <linearGradient
       x1="12.25"
       y1="20.230709"
       x2="17.125"
       y2="34.173542"
       id="linearGradient3261"
       xlink:href="#linearGradient3254-3-182"
       gradientUnits="userSpaceOnUse"
       gradientTransform="matrix(0.8965013,0,0,1.365896,4.7251825,-8.808688)" />
    <linearGradient
       x1="24"
       y1="13.506023"
       x2="24"
       y2="43"
       id="linearGradient3389"
       xlink:href="#linearGradient3205"
       gradientUnits="userSpaceOnUse"
       gradientTransform="matrix(1,0.3684052,0,1,0,-4.9734702)" />
    <linearGradient
       id="linearGradient3205">
      <stop
         id="stop3207"
         style="stop-color:#000000;stop-opacity:1"
         offset="0" />
      <stop
         id="stop3209"
         style="stop-color:#000000;stop-opacity:0"
         offset="1" />
    </linearGradient>
    <linearGradient
       x1="24"
       y1="15.502284"
       x2="24"
       y2="45"
       id="linearGradient3373"
       xlink:href="#linearGradient3205"
       gradientUnits="userSpaceOnUse"
       gradientTransform="matrix(1,4.605065e-2,0,1,0,-0.9440383)" />
  </defs>
  <g
     id="layer1">
    <path
       d="M 41,38.001101 C 40.998964,43.52352 33.388109,48 24,48 C 14.611891,48 7.0010357,43.52352 7,38.001101 C 6.9989643,32.477823 14.610427,28 24,28 C 33.389573,28 41.001036,32.477823 41,38.001101 z"
       id="path12941"
       style="fill:url(#radialGradient3269);fill-opacity:1;fill-rule:evenodd;stroke:none;stroke-width:1.05496335;marker:none;visibility:visible;display:inline;overflow:visible" />
    <path
       d="M 9.4998277,8 L 9.4998277,40 C 9.4998277,42.936408 13.907598,46.5 24.000001,46.5 C 34.092404,46.5 38.500172,42.936408 38.500172,40 L 38.500172,8 C 38.500172,8 9.4998277,8 9.4998277,8 z"
       id="path2230"
       style="fill:url(#linearGradient3264);fill-opacity:1;fill-rule:nonzero;stroke:url(#linearGradient3266);stroke-width:0.99999994;marker:none;stroke-opacity:1;visibility:visible;display:inline;overflow:visible" />
    <path
       d="M 10,9 L 10,40 C 10,42.822002 16.272,46.000003 24.000001,46 C 31.728001,46 38,42.822002 38,40 L 38,9 C 38,9 10,9 10,9 z"
       id="path3212"
       style="opacity:0.4;fill:url(#radialGradient3258);fill-opacity:1;fill-rule:nonzero;stroke:none;stroke-width:0.99999994;marker:none;stroke-opacity:1;visibility:visible;display:inline;overflow:visible" />
    <path
       d="M 38.507708,8.0000002 C 38.507708,11.042015 32.012385,13.508055 24.000001,13.508055 C 15.987614,13.508055 9.4922923,11.042015 9.4922923,8.0000002 C 9.4922923,4.9579851 15.987614,2.4919448 24.000001,2.4919448 C 32.012385,2.4919448 38.507708,4.9579851 38.507708,8.0000002 L 38.507708,8.0000002 z"
       id="path3164"
       style="fill:url(#linearGradient3253);fill-opacity:1;fill-rule:nonzero;stroke:url(#linearGradient3255);stroke-width:0.98388958;stroke-linecap:round;stroke-linejoin:round;marker:none;stroke-miterlimit:4;stroke-dasharray:none;stroke-dashoffset:0;stroke-opacity:1;visibility:visible;display:inline;overflow:visible" />
    <path
       d="M 38,8.0000002 C 38,10.761424 31.731986,13 24.000001,13 C 16.268013,13 10,10.761424 10,8.0000002 C 10,5.2385762 16.268013,2.9999999 24.000001,2.9999999 C 31.731986,2.9999999 38,5.2385762 38,8.0000002 L 38,8.0000002 z"
       id="path3197"
       style="opacity:0.3;fill:url(#radialGradient3250);fill-opacity:1;fill-rule:nonzero;stroke:none;stroke-width:0.98388958;stroke-linecap:round;stroke-linejoin:round;marker:none;stroke-miterlimit:4;stroke-dasharray:none;stroke-dashoffset:0;stroke-opacity:1;visibility:visible;display:inline;overflow:visible" />
    <path
       d="M 10.5,7.8105818 C 10.5,10.034378 10.5,38.407628 10.5,40.635257 C 10.5,43.320597 16.575144,45.500002 23.999975,45.500002 C 31.424805,45.500002 37.499999,43.320597 37.499999,40.635257 C 37.499999,38.574133 37.499999,9.8717077 37.499999,7.8105818 C 37.499999,5.5670152 31.420835,3.4635602 23.999975,3.5004788 C 16.579114,3.5373993 10.5,5.5773261 10.5,7.8105818 z"
       id="path2206"
       style="opacity:0.15;fill:none;stroke:url(#linearGradient3247);stroke-width:0.99999982;stroke-linecap:round;stroke-linejoin:round;marker:none;stroke-miterlimit:4;stroke-dasharray:none;stroke-dashoffset:0;stroke-opacity:1;visibility:visible;display:inline;overflow:visible" />
    <path
       d="M 16.379699,12.177193 L 20.862206,13.045651 L 20.862206,46.254004 L 16.379699,45.144213 L 16.379699,12.177193 L 16.379699,12.177193 z"
       id="rect3244"
       style="opacity:0.2;fill:url(#linearGradient3261);fill-opacity:1;fill-rule:nonzero;stroke:none;stroke-width:1;marker:none;visibility:visible;display:inline;overflow:visible" />
    <path
       d="M 13.5,13.506023 C 14.331,13.812168 15,14.727631 15,15.558631 L 15,42.052608 C 15,42.883608 14.331,43.306145 13.5,43 C 12.669,42.693855 12,41.778392 12,40.947392 L 12,14.453415 C 12,13.622415 12.669,13.199878 13.5,13.506023 z M 34.5,13.259035 C 33.669,13.56518 33,14.480643 33,15.311643 L 33,41.80562 C 33,42.63662 33.669,43.059157 34.5,42.753012 C 35.331,42.446867 36,41.531404 36,40.700404 L 36,14.206427 C 36,13.375427 35.331,12.95289 34.5,13.259035 z"
       id="path3287"
       style="opacity:0.15;fill:url(#linearGradient3389);fill-opacity:1;fill-rule:nonzero;stroke:none;stroke-width:0.99992186;stroke-linecap:butt;stroke-linejoin:round;marker:none;marker-start:none;marker-mid:none;marker-end:none;stroke-miterlimit:4;stroke-dashoffset:0;stroke-opacity:1;visibility:visible;display:inline;overflow:visible;enable-background:accumulate" />
    <path
       d="M 20.5,15.506023 C 21.331,15.544291 22,16.244099 22,17.075099 L 22,43.569076 C 22,44.400076 21.331,45.038268 20.5,45 C 19.669,44.961732 19,44.261924 19,43.430924 L 19,16.936947 C 19,16.105947 19.669,15.467755 20.5,15.506023 z M 27.5,15.506023 C 26.669,15.544291 26,16.244099 26,17.075099 L 26,43.569076 C 26,44.400076 26.669,45.038268 27.5,45 C 28.331,44.961732 29,44.261924 29,43.430924 L 29,16.936947 C 29,16.105947 28.331,15.467755 27.5,15.506023 z"
       id="path3293"
       style="opacity:0.3;fill:url(#linearGradient3373);fill-opacity:1;fill-rule:nonzero;stroke:none;stroke-width:0.99992186;stroke-linecap:butt;stroke-linejoin:round;marker:none;marker-start:none;marker-mid:none;marker-end:none;stroke-miterlimit:4;stroke-dashoffset:0;stroke-opacity:1;visibility:visible;display:inline;overflow:visible;enable-background:accumulate" />
  </g>
</svg>
